archdroid-icon-theme/Archdroid-BlueGreyDark/apps/scalable/application-default-icon.svg

<svg fill="#263238" height="48" viewBox="0 0 48 48" width="48" xmlns="http://www.w3.org/2000/svg"><path d="m10 6c-2.21 0-4 1.79-4 4v28c0 2.21 1.79 4 4 4h28c2.21 0 4-1.79 4-4v-28c0-2.21-1.79-4-4-4zm14 6c2.198833 5.160035 2.716861 6.747438 9.128906 18.685547-.810765-.486797-1.851956-.923302-3.304688-1.300781 2.113546 1.084811 3.149195 2.087482 4.142578 2.857422.630656 1.16943 1.293336 2.39566 2.033204 3.757812-3.751723-2.165937-6.672857-3.513063-9.390625-4.044922.090539-.409493.144881-.851526.15625-1.310547.060355-2.436936-1.109627-4.515338-2.611328-4.642578-1.501703-.127241-2.769723 1.746658-2.830078 4.183594l-.001953.119141c-.004547.571639.058241 1.122248.175781 1.628906-2.747335.516874-5.695293 1.87101-9.498047 4.066406 4.839529-8.695651 7.225879-13.218292 8.748047-16.394531.796657.669984 1.861023 1.313946 3.423828 1.957031-1.45364-1.016672-2.348891-1.912559-3.078125-2.685547 1.189372-2.541242 1.837986-4.257854 2.90625-6.876953z" fill="#263238"/></svg>

<svg fill="#263238" height="48" version="1.1" viewBox="0 0 48 48" width="48" xmlns="http://www.w3.org/2000/svg"><path d="M10 6C7.79 6 6 7.79 6 10l0 28c0 2.21 1.79 4 4 4l28 0c2.21 0 4-1.79 4-4L42 10C42 7.79 40.21 6 38 6L10 6Zm14 6c2.198833 5.160035 2.716861 6.747438 9.128906 18.685547-.810765-.486797-1.851956-.923302-3.304688-1.300781 2.113546 1.084811 3.149195 2.087482 4.142578 2.857422C34.597452 33.411618 35.260132 34.637848 36 36c-3.751723-2.165937-6.672857-3.513063-9.390625-4.044922.090539-.409493.144881-.851526.15625-1.310547.060355-2.436936-1.109627-4.515338-2.611328-4.642578-1.501703-.127241-2.769723 1.746658-2.830078 4.183594L21.322266 30.304688c-.004547.571639.058241 1.122248.175781 1.628906C18.750712 32.450468 15.802754 33.804604 12 36 16.839529 27.304349 19.225879 22.781708 20.748047 19.605469 21.544704 20.275453 22.60907 20.919415 24.171875 21.5625 22.718235 20.545828 21.822984 19.649941 21.09375 18.876953 22.283122 16.335711 22.931736 14.619099 24 12Z"/></svg>
